icons/core/bookmarks.svg

<svg width="32" height="32" viewBox="0 0 32 32" fill="none" xmlns="http://www.w3.org/2000/svg">
<path fill-rule="evenodd" clip-rule="evenodd" d="M12 2C10.8954 2 10 2.89543 10 4V6H12V4H26L26 21.7209L24.3704 21.0711L23.6296 22.9289L26.6296 24.125L28 24.6714V23.1962L28 4C28 2.89543 27.1046 2 26 2H12ZM6 8C4.89543 8 4 8.89543 4 10V29.1961V30.8499L5.4645 30.0817L13 26.1292L20.5355 30.0817L22 30.8499V29.1962L22 10C22 8.89543 21.1046 8 20 8H6ZM6 10H20L20 27.5424L13.929 24.3581C13.3473 24.0529 12.6528 24.0529 12.071 24.3581L6 27.5424L6 10Z" fill="black"/>
</svg>

<svg viewBox="0 0 32 32" xmlns="http://www.w3.org/2000/svg"><path fill-rule="evenodd" d="M12 2a2 2 0 00-2 2v2h2V4h14v17.72l-1.63-.649-.74 1.858 3 1.196 1.37.546V4a2 2 0 00-2-2H12zM6 8a2 2 0 00-2 2v20.85l1.465-.768L13 26.129l7.535 3.953L22 30.85V10a2 2 0 00-2-2H6zm0 2h14v17.542l-6.071-3.184a2 2 0 00-1.858 0L6 27.542V10z"/></svg>
